X:1
T:Title
%%score { 1 | 2 }
L:1/8
Q:1/4=100
M:4/4
K:F
V:1 treble nm="Grand Piano"
V:2 bass 
V:1
 c2 G[FA] F3 E | DEFG A4 | G2 A[F=B] [Ec]2 G2 | edA=B [Ec]4 | c4 d3 c | c6 A2 | B B3 [Gc]3 [EG] | %7
w: A.~E.~Lind * * * *|||||||
 A6 z2 | A4 B3 A | A6 F2 | [EG] [EG]3 [EA]3 [EG] | [CF]6 z2 |] %12
w: |||||
V:2
 [F,A,F]2 [E,B,][C,C] [F,A,C]3 [A,C] | [B,C][B,C][A,C][G,CE] [F,CF]4 | %2
 [G,CE]2 [F,CF][D,G,] [C,G,]2 [E,C]2 | [G,CG][G,=B,F][G,B,F][G,F][K:bass] [C,G,]4 | %4
 [F,A,F]4 [F,B,F]3 [F,A,F] | [F,A,F]6 [F,CF]2 | [G,CE] [G,CE]3 [E,C]3 [C,C] | [F,CF]6 z2 | %8
 [F,F]4 [F,DF]3 [F,CF] | [F,CF]6 [F,A,C]2 | [C,B,] [C,B,]3 [C,C]3 [C,B,] | [F,A,]6 z2 |] %12

